X:1
T:O Bury Me Not on the Lone Prairie
M:4/4
L:1/8
Q:1/4=120
K:G
z2A,2DDF2|: A8-|A2BAF2D2|F8|
w:Oh bur-y me|not|-on the lone prai-rie|
w:****|lips|* of a youth who|lay|
z2A,A,D2F2|E8-|E2FED2B,2|D8|[1 z2A,A,D2F2 :|[2 z4||
w:These * words came|slow|* and - mourn-ful|ly| From the pal-lid|
w:On his dy-ing |bed|* at the close of|day||